synths/s1INCH.svg

<svg width="42" height="42" viewBox="0 0 42 42" fill="none" xmlns="http://www.w3.org/2000/svg">
<g clip-path="url(#clip0_7277_57985)">
<mask id="mask0_7277_57985" style="mask-type:alpha" maskUnits="userSpaceOnUse" x="0" y="0" width="42" height="42">
<circle cx="21" cy="21" r="21" transform="matrix(-1 0 0 1 42 0)" fill="url(#paint0_linear_7277_57985)"/>
</mask>
<g mask="url(#mask0_7277_57985)">
<circle cx="21" cy="21" r="21" transform="matrix(-1 0 0 1 42 0)" fill="#34EDB3"/>
<circle cx="18.2" cy="18.2" r="18.2" transform="matrix(-1 0 0 1 39.2 2.80005)" fill="white"/>
</g>
<circle cx="16.1" cy="16.1" r="16.1" transform="matrix(-1 0 0 1 37.1 4.90002)" fill="#0B0B22"/>
<circle cx="21.1" cy="21.1" r="16.1" fill="#06061B"/>
<path d="M21.0791 34.2242C28.0263 34.2242 33.6581 28.5923 33.6581 21.6451C33.6581 14.6979 28.0263 9.06604 21.0791 9.06604C14.1318 9.06604 8.5 14.6979 8.5 21.6451C8.5 28.5923 14.1318 34.2242 21.0791 34.2242Z" fill="#ECF3FF"/>
<path d="M17.6827 13.9726L13.28 12.2115V12.8405L17.0537 16.2368L16.8022 19.759L15.67 24.539L14.1606 26.6775L14.538 29.6964L16.4248 29.948L17.9343 29.6964L19.4438 29.948L22.0854 28.3127L22.5885 25.6712L25.7333 22.6522L27.117 23.6585L28.5007 25.6712V29.6964L30.3876 29.1933L32.2744 25.0422L32.7776 19.759L25.9849 9.82153L24.8528 9.56995L17.6827 13.9726Z" fill="white"/>
<path d="M11.0158 21.2426C11.0661 20.8149 11.0913 20.3872 11.2171 19.9847C11.5693 18.3243 12.2486 16.7393 13.2549 15.4563C13.431 15.2298 13.582 15.0286 13.7832 14.8273L12.6511 13.7706C12.4498 14.0726 12.2486 14.3744 12.0725 14.6764C11.1416 16.2865 10.6384 18.0978 10.5126 19.8841C10.4623 20.3369 10.4875 20.7898 10.4875 21.2175C10.4875 21.6703 10.5378 22.098 10.6133 22.5508C10.7391 23.4314 10.9655 24.2867 11.2674 25.0918C11.0661 24.2364 10.9655 23.3811 10.9403 22.5005C10.9403 22.098 10.9403 21.6703 11.0158 21.2426Z" fill="#94A6C4"/>
<path d="M16.1732 13.0921C15.5443 12.7902 14.6637 12.3877 14.0348 12.0858C14.6134 11.5323 15.67 10.9537 16.5506 10.5763C15.9216 11.0795 15.9216 12.1361 16.1732 13.0921Z" fill="#94A6C4"/>
<path d="M13.6322 17.3681C13.28 18.2487 13.0536 19.1795 12.9781 20.0852C12.9529 20.3116 12.9278 20.5381 12.9529 20.7645C12.9529 20.9909 12.9529 21.2173 12.9781 21.4438L13.0032 21.796C13.0032 21.8966 13.0284 22.0224 13.0536 22.123L13.1542 22.8023L13.1793 22.123C13.1793 22.0224 13.1793 21.8966 13.2045 21.796L13.2548 21.4689C13.28 21.2425 13.3303 21.0161 13.3554 20.8148C13.3806 20.5884 13.4561 20.3871 13.5064 20.1858C13.7328 19.3305 14.1102 18.5506 14.563 17.821C14.865 17.343 15.2172 16.9153 15.5945 16.5128L14.6134 15.5819C14.1856 16.1605 13.8838 16.7392 13.6322 17.3681Z" fill="#94A6C4"/>
<path d="M28.1988 13.0661C26.8654 12.5881 26.337 12.739 26.337 12.739C26.337 12.739 25.5068 14.9781 22.3369 15.1291C22.362 15.1542 25.205 16.8146 28.1988 13.0661Z" fill="#94A6C4"/>
<path d="M29.1045 17.5192C28.9788 20.2866 26.8403 21.3181 25.1799 21.1168C24.2742 20.991 22.9408 21.4187 22.9408 21.4187L21.2552 24.337L20.7017 24.5383L21.6577 22.7772C21.6577 22.7772 19.3935 23.6074 19.2174 23.6829C19.0413 23.7584 18.3368 24.7899 17.7582 25.8717C17.6324 25.1169 17.1544 24.5886 17.1544 24.5634C17.1544 24.6893 17.406 26.9535 17.1293 27.5824C16.8525 28.2366 15.6198 28.6643 15.6198 28.6643L17.4312 29.3435L17.5569 29.3938L18.9155 28.1108L19.4187 26.1987L20.0476 25.7459C20.0476 25.7459 21.6074 25.5698 21.381 26.9786C21.2804 27.6579 20.5256 27.6076 19.6702 28.1359C19.167 28.4378 18.513 28.9158 18.1859 29.2429L19.0916 29.897C19.0916 29.897 20.1734 29.7209 21.708 28.5133C23.2678 27.2554 22.4879 25.8969 22.4879 25.8969L25.0289 22.8527L26.6893 22.9785C26.6893 22.9785 29.5574 23.7081 30.4882 26.4252C32.35 21.2174 29.3561 17.7708 29.1045 17.5192Z" fill="#94A6C4"/>
<path d="M32.0229 15.3564C32.4757 15.5576 32.8279 15.8587 33.155 16.1354C30.8907 8.28606 23.5446 9.1666 23.3936 9.21691C23.5697 8.94017 24.2239 8.51249 24.8277 8.28606C24.8277 8.28606 21.708 7.1791 18.8652 9.14144C18.9155 8.68859 19.469 8.00932 19.469 8.00932C15.5443 9.6958 15.2927 11.7084 16.0474 12.9152C15.4185 12.6133 14.7895 12.3365 14.1606 12.0346C12.2234 11.1038 10.563 10.3239 10.4623 10.2987C10.2862 10.2484 10.2108 10.3239 10.2108 10.3239C10.2108 10.3239 10.1353 10.3993 10.2862 10.5503C12.5756 12.8397 14.0348 14.2243 16.4751 16.4625C16.0726 17.3681 16.0223 17.821 16.2235 18.299C16.5003 18.9531 16.4751 19.2802 16.3745 19.7079C16.2487 20.1355 15.2424 23.9344 15.0663 24.3621C14.8902 24.815 13.5568 26.3244 13.5317 26.8276C13.5065 27.3308 13.909 29.5447 14.4625 29.8717C14.8902 30.0982 15.9217 30.5762 16.6764 30.6768C16.928 30.7271 17.1796 30.702 17.3054 30.6014C17.8085 30.2743 17.9343 30.224 18.2614 30.2491L18.3368 30.2743C18.4626 30.2994 18.6136 30.3498 18.8148 30.3749C19.2425 30.4252 19.796 30.4252 20.2489 30.1233C20.903 29.6202 22.0099 28.9912 22.3873 28.6641C22.8402 28.2113 23.142 27.5824 23.142 26.8779C23.142 26.249 23.5697 25.7458 24.0478 25.2427C24.5006 24.7898 25.6327 23.6828 26.0855 23.2048C27.2428 23.6074 27.6705 25.2678 27.6705 26.1735C27.6705 28.6893 25.6327 32.3624 20.9533 32.6391C20.7772 32.6391 20.601 32.6643 20.3998 32.6643C14.3115 32.6643 9.33022 27.2804 9.33022 20.9657C9.33022 15.9844 12.3232 12.6113 12.3484 12.5861C9.9332 14.8755 8.5 18.0726 8.5 21.6451C8.5 28.5887 14.1355 34.225 21.0791 34.225C28.0227 34.225 33.6581 28.5887 33.6581 21.6451C33.6581 19.3808 33.0795 17.193 32.0229 15.3564ZM14.8398 13.7454C14.4876 13.4435 14.1355 13.1416 13.7832 12.8397C14.2612 13.0913 14.7392 13.3429 15.1669 13.5693C16.4751 14.2485 17.5569 14.8523 17.7582 15.0033C17.7582 15.0033 17.7833 15.0284 17.8085 15.0536C17.9343 15.2045 18.0601 15.4561 17.8337 15.7832C17.7079 15.9593 17.5569 15.909 17.3305 15.758C17.1293 15.6322 16.0474 14.7769 14.8398 13.7454ZM22.1609 26.8276C22.1609 27.2553 21.9596 27.6327 21.708 27.9094C21.5822 28.0352 21.0791 28.3623 20.7269 28.5887C20.3746 28.8403 19.9972 29.0667 19.6954 29.2931C19.5696 29.3686 19.3683 29.4189 19.0413 29.3686L18.2614 29.2679C18.7394 28.79 20.0476 27.7585 20.4753 27.5572C20.9784 27.3056 21.2804 27.0289 21.0539 26.4502C20.8527 25.8465 20.0728 25.8716 20.0728 25.8716C20.0728 25.8716 20.5507 25.7458 20.9281 25.7961C20.4501 25.5949 19.796 25.6452 19.469 25.8716C19.1168 26.1232 19.0161 27.1547 18.7897 27.7836C18.5633 28.4377 18.0601 28.7145 17.3054 29.2428C16.8777 29.5195 16.6009 29.595 16.3996 29.5699C15.972 29.4441 15.4688 29.2176 15.1166 29.0415C14.9153 28.6641 14.6637 27.4817 14.6386 27.0037C14.7392 26.7521 15.1418 26.249 15.343 25.9471C15.7456 25.3936 15.972 25.0665 16.0726 24.7646C16.2487 24.3369 16.9783 21.6451 17.255 20.5129C17.5318 20.9909 17.9092 21.796 17.7331 22.2489C18.6387 21.2928 18.2362 20.1607 18.0349 19.7079C17.8588 19.255 17.6576 18.3745 18.0601 17.5191C18.4375 16.6637 19.7457 14.3492 19.7457 14.3492C19.7457 14.3492 19.9721 14.953 20.4501 14.9027C20.903 14.8523 25.2553 9.97165 25.2553 9.97165C25.2553 9.97165 25.9346 12.2359 24.6767 13.6196C23.4188 15.0033 22.3621 15.1542 22.3621 15.1542C22.3621 15.1542 23.771 15.6071 25.2302 14.8523C25.6075 16.2109 25.9346 17.6197 25.9346 17.7958C25.834 17.9719 24.4251 20.3368 24.2993 20.4878C24.249 20.5381 23.8465 20.5884 23.5949 20.5884C23.142 20.6639 22.8653 20.689 22.7395 20.7645C22.5382 20.8903 21.3809 23.0791 20.8275 24.1357C20.3243 24.2112 19.8212 24.3873 19.4186 24.8653C19.6199 24.7646 20.1985 24.7646 20.6262 24.7646C21.0036 24.7898 22.0351 25.5445 22.1609 26.727C22.1609 26.8025 22.1609 26.8025 22.1609 26.8276ZM19.2174 27.8842C19.4941 27.5824 19.5444 27.0037 19.5947 26.8276C19.6451 26.6515 19.7457 26.3244 19.9721 26.2993C20.1985 26.2741 20.6766 26.4251 20.6262 26.8025C20.5759 27.1547 20.1985 27.1798 19.8967 27.3559C19.6954 27.4817 19.2677 27.8339 19.2174 27.8842ZM30.1612 28.2113C29.8593 24.9911 27.6454 23.4816 26.6642 22.9784C27.7963 22.8526 30.7146 21.9721 29.1045 17.5191C29.1548 17.7204 29.6077 19.9343 28.3246 21.0916C27.0164 22.274 25.1044 21.7708 24.878 21.7708C24.6767 21.7456 23.7207 22.6765 22.4125 24.4628C22.2867 24.3873 21.7583 24.186 21.1042 24.2112C21.7583 22.9784 22.7395 21.2174 22.8905 21.0664C22.9408 21.0161 23.3684 20.9657 23.6201 20.9406C24.1232 20.8903 24.3748 20.84 24.4754 20.7393C24.5257 20.6639 24.878 20.1104 25.2302 19.5066C25.4566 19.5317 26.0604 19.582 26.1358 19.5569C26.1862 19.5066 26.8655 18.299 26.8906 18.148C26.9157 18.0474 26.4378 16.1606 26.1358 14.953C32.3499 17.8965 33.3311 24.3873 30.1612 28.2113Z" fill="#1C324F"/>
<path d="M24.1735 13.2423C24.878 12.6133 24.7773 11.5315 24.7773 11.5315L22.664 13.8712C22.6388 13.8712 23.293 13.997 24.1735 13.2423Z" fill="#1C324F"/>
<path d="M16.2738 26.5509L16.6261 25.5446C16.6261 25.5446 15.5443 26.9283 15.4436 27.1295C15.343 27.356 15.3933 27.7837 15.7455 27.8088C16.0977 27.834 16.5758 27.3811 16.6261 27.0289C16.7015 26.5509 16.2738 26.5509 16.2738 26.5509Z" fill="#1C324F"/>
<path d="M19.5947 20.4626C20.3494 20.3871 21.708 19.7833 22.2866 19.3053C22.8652 18.8022 22.7646 17.6952 21.8589 17.3681C22.1608 16.865 22.664 15.8083 22.664 15.8083C22.664 15.8083 19.4186 19.6072 19.167 19.6576C18.9154 19.7079 18.8148 18.7518 18.8148 18.7518C18.06 20.5884 19.3431 21.0413 19.5947 20.4626Z" fill="#1C324F"/>
<path d="M19.8715 19.9847L21.5571 17.8462C21.5571 17.8462 22.2867 18.3493 21.8086 18.928C21.2048 19.6073 19.8715 19.9847 19.8715 19.9847Z" fill="#FFD925"/>
<path d="M24.3496 10.4496L23.1923 11.7075C22.2614 11.9842 21.3558 12.4874 20.5004 13.3176C20.5004 12.8396 21.8841 10.7515 24.3496 10.4496Z" fill="#D82423"/>
<path d="M25.8087 11.5315C25.8339 11.2044 25.8087 10.8271 25.7584 10.4749C27.268 10.6761 29.0542 11.5567 31.092 13.5441C29.4064 12.6133 27.6201 11.7579 25.8087 11.5315Z" fill="#D82423"/>
<path d="M26.2616 13.1668C26.2616 13.1668 31.8718 15.6323 32.9033 22.5508C33.0543 13.5441 26.6641 13.0913 26.2616 13.1668Z" fill="#D82423"/>
<path d="M18.0852 9.19177C18.0097 9.39304 14.8398 12.7894 18.7896 14.1228C16.626 12.1856 18.06 9.21693 18.0852 9.19177Z" fill="#D82423"/>
<path d="M19.7708 13.5944C19.7708 13.5944 20.0979 9.74523 22.4124 8.71375C22.2364 8.76406 17.5318 10.1981 19.7708 13.5944Z" fill="#D82423"/>
</g>
<defs>
<linearGradient id="paint0_linear_7277_57985" x1="21" y1="0" x2="21" y2="61.4091" gradientUnits="userSpaceOnUse">
<stop stop-color="#08021E"/>
<stop offset="1" stop-color="#1F0777"/>
</linearGradient>
<clipPath id="clip0_7277_57985">
<rect width="42" height="42" fill="white"/>
</clipPath>
</defs>
</svg>

<svg xmlns="http://www.w3.org/2000/svg" width="42" height="42" fill="none"><g clip-path="url(#a)"><mask id="c" width="42" height="42" x="0" y="0" maskUnits="userSpaceOnUse" style="mask-type:alpha"><circle cx="21" cy="21" r="21" fill="url(#b)" transform="matrix(-1 0 0 1 42 0)"/></mask><g mask="url(#c)"><circle cx="21" cy="21" r="21" fill="#34EDB3" transform="matrix(-1 0 0 1 42 0)"/><circle cx="18.2" cy="18.2" r="18.2" fill="#fff" transform="matrix(-1 0 0 1 39.2 2.8)"/></g><circle cx="16.1" cy="16.1" r="16.1" fill="#0B0B22" transform="matrix(-1 0 0 1 37.1 4.9)"/><circle cx="21.1" cy="21.1" r="16.1" fill="#06061B"/><path fill="#ECF3FF" d="M21.08 34.224c6.946 0 12.578-5.632 12.578-12.579 0-6.947-5.632-12.579-12.579-12.579-6.947 0-12.579 5.632-12.579 12.58 0 6.946 5.632 12.578 12.58 12.578Z"/><path fill="#fff" d="M17.683 13.973 13.28 12.21v.63l3.774 3.396-.252 3.522-1.132 4.78-1.51 2.138.378 3.02 1.887.251 1.51-.252 1.509.252 2.641-1.635.503-2.642 3.145-3.019 1.384 1.006 1.384 2.013v4.025l1.887-.503 1.886-4.15.504-5.284-6.793-9.937-1.132-.252-7.17 4.403Z"/><path fill="#94A6C4" d="M11.016 21.243c.05-.428.075-.856.201-1.258.352-1.66 1.032-3.246 2.038-4.529.176-.226.327-.427.528-.629l-1.132-1.056c-.201.302-.402.603-.579.905-.93 1.61-1.434 3.422-1.56 5.208-.05.453-.024.906-.024 1.334 0 .452.05.88.125 1.333.126.88.353 1.736.654 2.54a12.818 12.818 0 0 1-.327-2.59c0-.403 0-.83.076-1.258ZM16.173 13.092c-.629-.302-1.51-.704-2.138-1.006.578-.554 1.635-1.132 2.516-1.51-.63.503-.63 1.56-.378 2.516ZM13.632 17.368a9.522 9.522 0 0 0-.654 2.717c-.025.227-.05.453-.025.68 0 .226 0 .452.025.679l.025.352c0 .1.025.226.05.327l.101.68.025-.68c0-.1 0-.226.025-.327l.05-.327c.026-.227.076-.453.101-.654.026-.227.101-.428.151-.63.227-.854.604-1.634 1.057-2.364a8.757 8.757 0 0 1 1.031-1.308l-.98-.931a7.781 7.781 0 0 0-.982 1.786ZM28.199 13.066c-1.334-.478-1.862-.327-1.862-.327s-.83 2.24-4 2.39c.025.025 2.868 1.686 5.862-2.063ZM29.105 17.52c-.126 2.767-2.265 3.798-3.925 3.597-.906-.126-2.24.302-2.24.302l-1.685 2.918-.553.201.956-1.76s-2.265.83-2.44.905c-.177.075-.881 1.107-1.46 2.189-.126-.755-.604-1.283-.604-1.309 0 .126.252 2.39-.025 3.02-.277.654-1.51 1.081-1.51 1.081l1.812.68.126.05 1.359-1.283.503-1.912.629-.453s1.56-.176 1.333 1.233c-.1.679-.855.629-1.71 1.157-.504.302-1.158.78-1.485 1.107l.906.654s1.081-.176 2.616-1.384c1.56-1.258.78-2.616.78-2.616l2.54-3.044 1.661.125s2.868.73 3.8 3.447c1.861-5.208-1.133-8.654-1.384-8.906Z"/><path fill="#1C324F" d="M32.023 15.356c.453.202.805.503 1.132.78-2.264-7.85-9.61-6.97-9.761-6.92.176-.276.83-.704 1.434-.93 0 0-3.12-1.107-5.963.855.05-.452.604-1.132.604-1.132-3.925 1.687-4.176 3.7-3.422 4.906-.629-.302-1.258-.579-1.886-.88-1.938-.931-3.598-1.711-3.699-1.736-.176-.05-.251.025-.251.025s-.076.075.075.226c2.29 2.29 3.749 3.674 6.19 5.912-.403.906-.454 1.359-.252 1.837.276.654.251.981.15 1.409-.125.428-1.132 4.226-1.308 4.654-.176.453-1.51 1.962-1.534 2.466-.025.503.377 2.717.93 3.044.428.226 1.46.704 2.214.805.252.05.504.025.63-.076.502-.327.628-.377.955-.352l.076.025c.126.025.277.076.478.1.427.051.981.051 1.434-.25.654-.504 1.76-1.133 2.138-1.46a2.529 2.529 0 0 0 .755-1.786c0-.629.428-1.132.906-1.635.453-.453 1.585-1.56 2.038-2.038 1.157.402 1.585 2.063 1.585 2.969 0 2.515-2.038 6.188-6.718 6.465-.176 0-.352.025-.553.025-6.088 0-11.07-5.384-11.07-11.698 0-4.982 2.993-8.355 3.018-8.38-2.415 2.29-3.848 5.487-3.848 9.06 0 6.943 5.636 12.579 12.58 12.579 6.943 0 12.578-5.636 12.578-12.58 0-2.264-.578-4.452-1.635-6.289Zm-17.183-1.61-1.057-.906c.478.251.956.503 1.384.73 1.308.678 2.39 1.282 2.591 1.433l.05.05c.126.151.252.403.026.73-.126.176-.277.126-.503-.025-.202-.126-1.284-.981-2.491-2.013Zm7.32 13.082c0 .427-.2.805-.452 1.081-.126.126-.629.453-.981.68-.352.251-.73.478-1.032.704-.125.076-.327.126-.654.076l-.78-.101c.478-.478 1.787-1.51 2.214-1.71.503-.252.805-.53.579-1.108-.201-.604-.981-.578-.981-.578s.478-.126.855-.076c-.478-.201-1.132-.15-1.459.076-.352.251-.453 1.283-.68 1.912-.226.654-.729.93-1.484 1.459-.427.277-.704.352-.905.327a8.54 8.54 0 0 1-1.283-.529c-.202-.377-.453-1.56-.478-2.037.1-.252.503-.755.704-1.057.403-.553.629-.88.73-1.182.176-.428.905-3.12 1.182-4.252.277.478.654 1.283.478 1.736.906-.956.503-2.088.302-2.541-.176-.453-.377-1.333.025-2.189.378-.855 1.686-3.17 1.686-3.17s.226.604.704.554c.453-.05 4.805-4.931 4.805-4.931s.68 2.264-.578 3.648c-1.258 1.383-2.315 1.534-2.315 1.534s1.409.453 2.868-.302c.378 1.359.705 2.768.705 2.944-.101.176-1.51 2.54-1.636 2.692-.05.05-.453.1-.704.1-.453.076-.73.101-.855.177-.202.125-1.36 2.314-1.912 3.37-.504.076-1.007.252-1.41.73.202-.1.78-.1 1.208-.1.378.025 1.41.78 1.535 1.962v.1Zm-2.943 1.056c.277-.302.327-.88.378-1.056.05-.177.15-.504.377-.529.226-.025.705.126.654.503-.05.353-.428.378-.73.554a7.308 7.308 0 0 0-.679.528Zm10.944.327c-.302-3.22-2.516-4.73-3.497-5.233 1.132-.125 4.05-1.006 2.44-5.459.05.201.504 2.415-.78 3.573-1.308 1.182-3.22.679-3.446.679-.201-.025-1.157.905-2.465 2.692-.126-.076-.655-.277-1.309-.252.654-1.233 1.636-2.994 1.787-3.145.05-.05.477-.1.73-.125.502-.05.754-.101.854-.202.05-.075.403-.629.755-1.232.227.025.83.075.906.05.05-.05.73-1.258.755-1.409.025-.1-.453-1.987-.755-3.195 6.214 2.944 7.195 9.434 4.025 13.258Z"/><path fill="#1C324F" d="M24.174 13.242c.704-.629.603-1.71.603-1.71l-2.113 2.34c-.025 0 .629.125 1.51-.63ZM16.274 26.55l.352-1.005s-1.082 1.383-1.182 1.584c-.101.227-.05.655.301.68.353.025.83-.428.881-.78.075-.478-.352-.478-.352-.478ZM19.595 20.463c.754-.076 2.113-.68 2.692-1.158.578-.503.478-1.61-.428-1.937.302-.503.805-1.56.805-1.56s-3.245 3.8-3.497 3.85c-.252.05-.352-.906-.352-.906-.755 1.836.528 2.29.78 1.71Z"/><path fill="#FFD925" d="m19.872 19.985 1.685-2.139s.73.503.252 1.082c-.604.68-1.938 1.057-1.938 1.057Z"/><path fill="#D82423" d="m24.35 10.45-1.158 1.258c-.93.276-1.836.78-2.692 1.61 0-.478 1.384-2.566 3.85-2.868ZM25.809 11.531c.025-.327 0-.704-.05-1.056 1.509.201 3.295 1.082 5.333 3.07-1.686-.932-3.472-1.787-5.283-2.014ZM26.262 13.167s5.61 2.465 6.641 9.384c.151-9.007-6.239-9.46-6.641-9.384ZM18.085 9.192c-.075.201-3.245 3.597.705 4.93-2.164-1.936-.73-4.905-.705-4.93ZM19.77 13.594s.328-3.849 2.642-4.88c-.176.05-4.88 1.484-2.641 4.88Z"/></g><defs><linearGradient id="b" x1="21" x2="21" y1="0" y2="61.409" gradientUnits="userSpaceOnUse"><stop stop-color="#08021E"/><stop offset="1" stop-color="#1F0777"/></linearGradient><clipPath id="a"><path fill="#fff" d="M0 0h42v42H0z"/></clipPath></defs></svg>
